svgs/graded.svg

<svg width="192" height="192" viewBox="0 0 192 192" fill="none" xmlns="http://www.w3.org/2000/svg">
<path d="M95.5003 68.4725C95.5003 34.1227 124.821 35.1698 125.868 68.4725L142.136 68.4725V60.2165C142.136 9.00839 78.2 9.51458 78.2 60.2165V142.438C78.2 179.153 142.136 179.221 142.136 142.438V98.4423H124.923H109.637V115.277H124.821V134.808C124.821 155.069 95.5003 155.069 95.5003 132.371V68.4725Z" stroke="black" stroke-width="12" stroke-linecap="round" stroke-linejoin="round"/>
<path d="M109.2 44L37.3422 125.973C32.0677 131.99 32.7708 141.167 38.9003 146.31V146.31C44.9576 151.393 53.9931 150.581 59.047 144.499L124.7 65.5" stroke="black" stroke-width="12" stroke-linecap="round" stroke-linejoin="round"/>
<path d="M34.0011 130.864L22.0846 167.296C21.7909 168.193 22.7912 168.96 23.582 168.444L57.3124 146.405" stroke="black" stroke-width="12" stroke-linecap="round" stroke-linejoin="round"/>
</svg>

<svg width="192" height="192" viewBox="0 0 192 192" fill="none" xmlns="http://www.w3.org/2000/svg"><path d="M95.5 68.472c0-34.35 29.321-33.302 30.368 0h16.268v-8.255c0-51.209-63.936-50.702-63.936 0v82.221c0 36.715 63.936 36.783 63.936 0V98.442h-32.499v16.835h15.184v19.531c0 20.261-29.32 20.261-29.32-2.437V68.472Z" stroke="#000" stroke-width="12" stroke-linecap="round" stroke-linejoin="round"/><path d="m109.2 44-71.858 81.973c-5.274 6.017-4.571 15.194 1.558 20.337v0c6.058 5.083 15.093 4.271 20.147-1.811L124.7 65.5" stroke="#000" stroke-width="12" stroke-linecap="round" stroke-linejoin="round"/><path d="m34.001 130.864-11.916 36.432c-.294.897.706 1.664 1.497 1.148l33.73-22.039" stroke="#000" stroke-width="12" stroke-linecap="round" stroke-linejoin="round"/></svg>
